X:47
T:Polska ur Petter Dufvas notbok (Ma6-47)
R:Polska
O:Verkelbäck, Småland
B:Petter Dufvas notbok
S:Petter Dufva
N:Smus Ma6 bild 49
M:3/4
L:1/8
K:D
A2 B2 c2|d2 eg fa|A2 Bc dg|f/e/d/c/ d2 D2:|
|:fg ag/f/ b2|ef gf/e/ a2|ag/f/ gf/e/ fe/d/|cd ec A2|
fg ag/f/ b2|ef gf/e/ a2|A2 Bc dg|f/e/d/c/ d2 D2:|

